Yaru++/mimetypes/scalable/application-x-lmms-project.svg

<svg height="256" viewBox="0 0 67.73 67.73" width="256" xmlns="http://www.w3.org/2000/svg" xmlns:xlink="http://www.w3.org/1999/xlink"><filter id="a" color-interpolation-filters="sRGB" height="1.024857" width="1.0232" x="-.0116" y="-.012429"><feGaussianBlur stdDeviation=".145"/></filter><linearGradient id="b" gradientUnits="userSpaceOnUse" x1="41.62578242" x2="20.70405969738" y1="62.22025846" y2="3.48564964"><stop offset="0" stop-color="#27ab5f"/><stop offset="1" stop-color="#249a56"/></linearGradient><linearGradient id="c" gradientUnits="userSpaceOnUse" x1="88" x2="488" y1="88" y2="488"><stop offset="0" stop-opacity=".588235"/><stop offset=".88" stop-opacity="0"/><stop offset="1"/></linearGradient><filter id="d" color-interpolation-filters="sRGB" height="1.087725" width="1.105998" x="-.052999" y="-.043863"><feGaussianBlur stdDeviation="8.4801079"/></filter><filter id="e" color-interpolation-filters="sRGB" height="1.021931" width="1.0265" x="-.01325" y="-.010966"><feGaussianBlur stdDeviation="2.120027"/></filter><path d="m189.84323 74c-70.59344 0-78.18921 7.250835-77.84323 77.98706v146.01294 146.01294c-.34598 70.73623 7.24979 77.98706 77.84323 77.98706h196.31354c70.59344 0 76.00668-7.27384 77.84323-77.98706v-146.01294-146.01294c0-70.737067-7.24979-77.98706-77.84323-77.98706z" filter="url(#e)" opacity=".1" transform="matrix(.13228516 0 0 .13228516 -4.409451 -6.038882)"/><path d="m189.84323 74c-70.59344 0-78.18921 7.250835-77.84323 77.98706v146.01294 146.01294c-.34598 70.73623 7.24979 77.98706 77.84323 77.98706h196.31354c70.59344 0 77.84323-7.24999 77.84323-77.98706v-146.01294-146.01294c0-70.737067-7.24979-77.98706-77.84323-77.98706z" fill="url(#c)" filter="url(#d)" opacity=".3" transform="matrix(.13228516 0 0 .13228516 -4.409451 -6.038882)"/><path d="m46.671928 3.4856498c9.338467 0 10.343273.959178 10.297505 10.3165312v19.315345 19.315344c.04577 9.357355-.959038 10.316531-10.297505 10.316531h-25.969365c-9.338464 0-10.297505-.959068-10.297505-10.316531v-19.315344-19.315345c0-9.3574652.959041-10.3165312 10.297505-10.3165312z" fill="url(#b)"/><path d="m152 146-15 8v17.5l5 2.5 5-2.5v-6l-5-2.5v-6l10-5.5 10 5.5v6l-5 2.5v6l5 2.5 5-2.5v-17.5z" filter="url(#a)" opacity=".2" transform="matrix(.9665279 0 0 .95950112 -113.22428 -118.21908)"/><g fill="#fff"><path d="m33.841428 3.4092722v59.2637508h12.984615c9.338464 0 10.054627-.962123 10.297574-10.316435v-19.31544-19.315442c0-9.3574638-.95911-10.3164338-10.297574-10.3164338z" opacity=".08"/><path d="m10.406486 33.117526v19.31544c-.04577 9.357354.959108 10.316435 10.297574 10.316435h25.969228c9.338464 0 10.054627-.962123 10.297574-10.316435v-19.31544z" opacity=".08"/><path d="m41.096642 62.749401 15.87422-15.874219v5.948567c-.01384 8.994282-1.006077 9.925652-10.099734 9.925652z" opacity=".08"/></g><path d="m10.406486 51.903568v.529141c-.04577 9.357355.959107 10.316692 10.297574 10.316692h25.969228c9.338464 0 10.054627-.96238 10.297574-10.316692v-.529141c-.242947 9.354312-.95911 10.316692-10.297574 10.316692h-25.969228c-9.338467 0-10.343342-.959337-10.297574-10.316692z" opacity=".2"/><path d="m20.70406 3.4856498c-9.338467 0-10.343342.95934-10.297574 10.3166922v.529141c-.04577-9.3573532.959107-10.3166922 10.297574-10.3166922h25.969228c9.338467 0 10.297574.959228 10.297574 10.3166922v-.529141c0-9.3574642-.959107-10.3166922-10.297574-10.3166922z" fill="#fff" opacity=".4"/><path d="m19.190041 27.62509c.38651-.06681 14.497919-7.67601 14.497919-7.67601l14.497921 7.67601v16.791267l-4.832641 2.398753-4.832642-2.398753v-5.757005l4.832642-2.398755v-5.757003l-9.66528-5.277257-9.665281 5.277257v5.757003l4.83264 2.398755v5.757005l-4.83264 2.398753-4.832638-2.398753z" fill="#fff" fill-opacity=".957547"/></svg>

<?xml version="1.0" encoding="UTF-8" standalone="no"?>
<svg
   xmlns:dc="http://purl.org/dc/elements/1.1/"
   xmlns:cc="http://creativecommons.org/ns#"
   xmlns:rdf="http://www.w3.org/1999/02/22-rdf-syntax-ns#"
   xmlns:svg="http://www.w3.org/2000/svg"
   xmlns="http://www.w3.org/2000/svg"
   xmlns:xlink="http://www.w3.org/1999/xlink"
   xmlns:sodipodi="http://sodipodi.sourceforge.net/DTD/sodipodi-0.dtd"
   xmlns:inkscape="http://www.inkscape.org/namespaces/inkscape"
   height="256"
   viewBox="0 0 67.73 67.73"
   width="256"
   version="1.1"
   id="svg42"
   sodipodi:docname="1.svg"
   inkscape:version="0.92.5 (2060ec1f9f, 2020-04-08)">
  <metadata
     id="metadata48">
    <rdf:RDF>
      <cc:Work
         rdf:about="">
        <dc:format>image/svg+xml</dc:format>
        <dc:type
           rdf:resource="http://purl.org/dc/dcmitype/StillImage" />
        <dc:title />
      </cc:Work>
    </rdf:RDF>
  </metadata>
  <defs
     id="defs46">
    <filter
       inkscape:collect="always"
       style="color-interpolation-filters:sRGB"
       id="filter4442"
       x="-0.0116"
       width="1.0232"
       y="-0.012428571"
       height="1.024857">
      <feGaussianBlur
         inkscape:collect="always"
         stdDeviation="0.145"
         id="feGaussianBlur4444" />
    </filter>
    <linearGradient
       gradientTransform="matrix(0.26457031,0,0,0.26457031,-6.5260144,-8.1554439)"
       inkscape:collect="always"
       xlink:href="#linearGradient4244-6"
       id="linearGradient5111"
       x1="182"
       y1="266"
       x2="102.92188"
       y2="44"
       gradientUnits="userSpaceOnUse" />
    <linearGradient
       id="linearGradient4244-6"
       inkscape:collect="always">
      <stop
         id="stop4428"
         offset="0"
         style="stop-color:#27ab5f;stop-opacity:1" />
      <stop
         id="stop4430"
         offset="1"
         style="stop-color:#249a56;stop-opacity:1" />
    </linearGradient>
    <linearGradient
       inkscape:collect="always"
       xlink:href="#linearGradient4360"
       id="linearGradient4358"
       x1="88"
       y1="88"
       x2="488"
       y2="488"
       gradientUnits="userSpaceOnUse" />
    <linearGradient
       id="linearGradient4360"
       inkscape:collect="always">
      <stop
         id="stop4362"
         offset="0"
         style="stop-color:#000000;stop-opacity:0.58823532" />
      <stop
         style="stop-color:#000000;stop-opacity:0"
         offset="0.88"
         id="stop4364" />
      <stop
         id="stop4366"
         offset="1"
         style="stop-color:#000000;stop-opacity:1" />
    </linearGradient>
    <filter
       inkscape:collect="always"
       style="color-interpolation-filters:sRGB"
       id="filter4380"
       x="-0.052999184"
       width="1.1059984"
       y="-0.043862626"
       height="1.0877253">
      <feGaussianBlur
         inkscape:collect="always"
         stdDeviation="8.4801079"
         id="feGaussianBlur4382" />
    </filter>
    <filter
       inkscape:collect="always"
       style="color-interpolation-filters:sRGB"
       id="filter4346"
       x="-0.013249796"
       width="1.0264996"
       y="-0.010965657"
       height="1.0219313">
      <feGaussianBlur
         inkscape:collect="always"
         stdDeviation="2.120027"
         id="feGaussianBlur4348" />
    </filter>
  </defs>
  <sodipodi:namedview
     pagecolor="#ffffff"
     bordercolor="#666666"
     borderopacity="1"
     objecttolerance="10"
     gridtolerance="10"
     guidetolerance="10"
     inkscape:pageopacity="0"
     inkscape:pageshadow="2"
     inkscape:window-width="1920"
     inkscape:window-height="1016"
     id="namedview44"
     showgrid="false"
     inkscape:zoom="8.3115122"
     inkscape:cx="127.33084"
     inkscape:cy="129.82524"
     inkscape:window-x="0"
     inkscape:window-y="27"
     inkscape:window-maximized="1"
     inkscape:current-layer="svg42" />
  <linearGradient
     id="a"
     gradientTransform="matrix(0 -.11988342 .11987999 0 .362762 292.01605)"
     gradientUnits="userSpaceOnUse"
     x1="529.65515"
     x2="-35.310345"
     y1="401.58368"
     y2="119.09284">
    <stop
       offset="0"
       stop-color="#f2f2f2"
       id="stop2" />
    <stop
       offset="1"
       stop-color="#f9f9f9"
       id="stop4" />
  </linearGradient>
  <linearGradient
     id="b"
     gradientUnits="userSpaceOnUse"
     x1="88"
     x2="488"
     y1="88"
     y2="488">
    <stop
       offset="0"
       stop-opacity=".588235"
       id="stop7" />
    <stop
       offset=".88"
       stop-opacity="0"
       id="stop9" />
    <stop
       offset="1"
       id="stop11" />
  </linearGradient>
  <filter
     id="c"
     color-interpolation-filters="sRGB"
     height="1.087725"
     width="1.105998"
     x="-.052999"
     y="-.043863">
    <feGaussianBlur
       stdDeviation="8.4801079"
       id="feGaussianBlur14" />
  </filter>
  <filter
     id="d"
     color-interpolation-filters="sRGB"
     height="1.021931"
     width="1.0265"
     x="-.01325"
     y="-.010966">
    <feGaussianBlur
       stdDeviation="2.120027"
       id="feGaussianBlur17" />
  </filter>
  <flowRoot
     xml:space="preserve"
     id="flowRoot856"
     style="fill:black;fill-opacity:1;stroke:none;font-family:sans-serif;font-style:normal;font-weight:normal;font-size:40px;line-height:1.25;letter-spacing:0px;word-spacing:0px"><flowRegion
       id="flowRegion858"><rect
         id="rect860"
         width="434.98306"
         height="561.89832"
         x="-65.084747"
         y="-154.03391" /></flowRegion><flowPara
       id="flowPara862" /></flowRoot>  <flowRoot
     xml:space="preserve"
     id="flowRoot864"
     style="fill:black;fill-opacity:1;stroke:none;font-family:sans-serif;font-style:normal;font-weight:normal;font-size:40px;line-height:1.25;letter-spacing:0px;word-spacing:0px"><flowRegion
       id="flowRegion866"><rect
         id="rect868"
         width="299.38983"
         height="344.94916"
         x="-23.864407"
         y="-14.101695" /></flowRegion><flowPara
       id="flowPara870" /></flowRoot>  <path
     style="color:#000000;display:inline;overflow:visible;visibility:visible;opacity:0.1;fill:#000000;fill-opacity:1;fill-rule:nonzero;stroke:none;stroke-width:2;marker:none;filter:url(#filter4346);enable-background:accumulate"
     d="M 189.84323,74 C 119.24979,74 111.65402,81.250835 112,151.98706 V 298 444.01294 C 111.65402,514.74917 119.24979,522 189.84323,522 H 386.15677 C 456.75021,522 462.16345,514.72616 464,444.01294 V 298 151.98706 C 464,81.249993 456.75021,74 386.15677,74 Z"
     id="rect4158-9"
     inkscape:connector-curvature="0"
     sodipodi:nodetypes="scccssscsss"
     transform="matrix(0.13228516,0,0,0.13228516,-4.4094514,-6.0388816)" />
  <path
     sodipodi:nodetypes="scccssscsss"
     inkscape:connector-curvature="0"
     id="path4350"
     d="M 189.84323,74 C 119.24979,74 111.65402,81.250835 112,151.98706 V 298 444.01294 C 111.65402,514.74917 119.24979,522 189.84323,522 H 386.15677 C 456.75021,522 464,514.75001 464,444.01294 V 298 151.98706 C 464,81.249993 456.75021,74 386.15677,74 Z"
     style="color:#000000;display:inline;overflow:visible;visibility:visible;opacity:0.3;fill:url(#linearGradient4358);fill-opacity:1;fill-rule:nonzero;stroke:none;stroke-width:2;marker:none;filter:url(#filter4380);enable-background:accumulate"
     transform="matrix(0.13228516,0,0,0.13228516,-4.4094514,-6.0388816)" />
  <path
     style="color:#000000;display:inline;overflow:visible;visibility:visible;fill:url(#linearGradient5111);fill-opacity:1;fill-rule:nonzero;stroke:none;stroke-width:0.26457033;marker:none;enable-background:accumulate"
     d="m 46.671928,3.4856498 c 9.338467,0 10.343273,0.959178 10.297505,10.3165312 V 33.117526 52.43287 c 0.04577,9.357355 -0.959038,10.316531 -10.297505,10.316531 H 20.702563 c -9.338464,0 -10.297505,-0.959068 -10.297505,-10.316531 V 33.117526 13.802181 c 0,-9.3574652 0.959041,-10.3165312 10.297505,-10.3165312 z"
     id="rect4158"
     inkscape:connector-curvature="0"
     sodipodi:nodetypes="scccssscsss" />
  <path
     style="color:#000000;font-style:normal;font-variant:normal;font-weight:normal;font-stretch:normal;font-size:medium;line-height:normal;font-family:sans-serif;text-indent:0;text-align:start;text-decoration:none;text-decoration-line:none;text-decoration-style:solid;text-decoration-color:#000000;letter-spacing:normal;word-spacing:normal;text-transform:none;writing-mode:lr-tb;direction:ltr;baseline-shift:baseline;text-anchor:start;white-space:normal;clip-rule:nonzero;display:inline;overflow:visible;visibility:visible;opacity:0.2;isolation:auto;mix-blend-mode:normal;color-interpolation:sRGB;color-interpolation-filters:linearRGB;solid-color:#000000;solid-opacity:1;fill:#000000;fill-opacity:1;fill-rule:nonzero;stroke:none;stroke-width:0.26868212;stroke-linecap:butt;stroke-linejoin:miter;stroke-miterlimit:4;stroke-dasharray:none;stroke-dashoffset:0;stroke-opacity:1;filter:url(#filter4442);color-rendering:auto;image-rendering:auto;shape-rendering:auto;text-rendering:auto;enable-background:accumulate"
     d="m 152,146 -15,8 v 17.5 l 5,2.5 5,-2.5 v -6 l -5,-2.5 v -6 l 10,-5.5 10,5.5 v 6 l -5,2.5 v 6 l 5,2.5 5,-2.5 V 154 Z"
     id="path4436"
     inkscape:connector-curvature="0"
     sodipodi:nodetypes="ccccccccccccccccc"
     transform="matrix(0.9665279,0,0,0.95950112,-113.22428,-118.21908)" />
  <path
     style="color:#000000;display:inline;overflow:visible;visibility:visible;opacity:0.07999998;fill:#ffffff;fill-opacity:1;fill-rule:nonzero;stroke:none;stroke-width:0.26457033;marker:none;enable-background:accumulate"
     d="M 33.841428,3.4092722 V 62.673023 h 12.984615 c 9.338464,0 10.054627,-0.962123 10.297574,-10.316435 V 33.041148 13.725706 c 0,-9.3574638 -0.95911,-10.3164338 -10.297574,-10.3164338 z"
     id="path4231"
     inkscape:connector-curvature="0"
     sodipodi:nodetypes="ccsscssc" />
  <path
     inkscape:connector-curvature="0"
     style="color:#000000;display:inline;overflow:visible;visibility:visible;opacity:0.07999998;fill:#ffffff;fill-opacity:1;fill-rule:nonzero;stroke:none;stroke-width:0.26457033;marker:none;enable-background:accumulate"
     d="m 10.406486,33.117526 v 19.31544 c -0.04577,9.357354 0.959108,10.316435 10.297574,10.316435 h 25.969228 c 9.338464,0 10.054627,-0.962123 10.297574,-10.316435 v -19.31544 z"
     id="path4255"
     sodipodi:nodetypes="ccssscc" />
  <path
     style="color:#000000;display:inline;overflow:visible;visibility:visible;opacity:0.07999998;fill:#ffffff;fill-opacity:1;fill-rule:nonzero;stroke:none;stroke-width:2.11656237;stroke-linecap:butt;stroke-linejoin:miter;stroke-miterlimit:4;stroke-dasharray:none;stroke-dashoffset:0;stroke-opacity:1;marker:none;enable-background:accumulate"
     d="m 41.096642,62.749401 15.87422,-15.874219 v 5.948567 c -0.01384,8.994282 -1.006077,9.925652 -10.099734,9.925652 z"
     id="path4254"
     inkscape:connector-curvature="0"
     sodipodi:nodetypes="cccsc" />
  <path
     style="color:#000000;display:inline;overflow:visible;visibility:visible;opacity:0.2;fill:#000000;fill-opacity:1;fill-rule:nonzero;stroke:none;stroke-width:0.26457033;marker:none;enable-background:accumulate"
     d="m 10.406486,51.903568 v 0.529141 c -0.04577,9.357355 0.959107,10.316692 10.297574,10.316692 h 25.969228 c 9.338464,0 10.054627,-0.96238 10.297574,-10.316692 V 51.903568 C 56.727915,61.25788 56.011752,62.22026 46.673288,62.22026 H 20.70406 c -9.338467,0 -10.343342,-0.959337 -10.297574,-10.316692 z"
     id="path945"
     inkscape:connector-curvature="0" />
  <path
     style="color:#000000;display:inline;overflow:visible;visibility:visible;opacity:0.4;fill:#ffffff;fill-opacity:1;fill-rule:nonzero;stroke:none;stroke-width:0.26457033;marker:none;enable-background:accumulate"
     d="m 20.70406,3.4856498 c -9.338467,0 -10.343342,0.95934 -10.297574,10.3166922 v 0.529141 C 10.360716,4.9741298 11.365593,4.0147908 20.70406,4.0147908 h 25.969228 c 9.338467,0 10.297574,0.959228 10.297574,10.3166922 v -0.529141 c 0,-9.3574642 -0.959107,-10.3166922 -10.297574,-10.3166922 z"
     id="path931"
     inkscape:connector-curvature="0" />
  <path
     style="fill:#ffffff;stroke:none;stroke-width:0.2645703px;stroke-linecap:butt;stroke-linejoin:miter;stroke-opacity:1;fill-opacity:0.95754719"
     d="m 19.190041,27.62509 c 0.38651,-0.06681 14.497919,-7.67601 14.497919,-7.67601 l 14.497921,7.67601 V 44.416357 L 43.35324,46.81511 38.520598,44.416357 v -5.757005 l 4.832642,-2.398755 v -5.757003 l -9.66528,-5.277257 -9.665281,5.277257 v 5.757003 l 4.83264,2.398755 v 5.757005 l -4.83264,2.398753 -4.832638,-2.398753 z"
     id="path860"
     inkscape:connector-curvature="0" />
</svg>
